file/louis-vuitton.svg

<svg clip-rule="evenodd" fill-rule="evenodd" stroke-linejoin="round" stroke-miterlimit="1.41421" viewBox="0 0 560 400" xmlns="http://www.w3.org/2000/svg"><g fill-rule="nonzero" transform="matrix(.926032 0 0 .926032 165.791 61.3247)"><path d="m180.824 3.97c20.694 0 41.391-.003 62.085.003.012 4.66-.024 9.323.021 13.987-5.258.229-10.634.818-15.475 3.018-4.911 2.207-9.028 6.221-11.147 11.193-25.164 59.154-50.311 118.315-75.448 177.482-.435.972-.785 1.977-1.292 2.916-9.001-.106-18.005-.016-27.006-.049-3.972-7.893-7.881-15.819-11.886-23.694-4.591 12.303-9.209 24.594-13.8 36.894 29.692.003 59.384 0 89.076.003 5.436.072 11.035-.154 16.121-2.279 8.452-3.396 15.18-9.958 20.655-17.072 6.61-8.621 11.627-18.325 16.097-28.186 5.014-.042 10.024.015 15.035.006-9.502 20.296-19.052 40.573-28.639 60.83-68.421.003-136.839 0-205.26 0 1.666-4.35 3.251-8.735 5.037-13.04.109-.443.661-.332.997-.374 8.542-.063 17.141-.395 25.523-2.173 4.362-1.023 8.874-2.388 12.231-5.503 1.775-1.693 2.327-4.165 2.916-6.447 8.08-21.624 16.172-43.245 24.258-64.866-17.09-36.414-34.237-72.807-51.337-109.218-1.376-3.184-3.193-6.338-6.051-8.412-5.917-4.431-13.604-4.992-20.728-5.276-.006-5.219 0-10.435-.003-15.653 24.024-.01 48.044-.007 72.068-.004.003 5.219.006 10.438-.003 15.657-3.131.199-6.454.148-9.288 1.696-1.407.664-2.234 2.337-1.872 3.858.444 2.49 2.412 4.268 3.408 6.517 10.145 21.85 20.29 43.703 30.465 65.544 5.098-14.256 10.196-28.509 15.315-42.755.752-1.981 1.018-4.269.16-6.261-.673-1.572-2.2-2.544-3.706-3.199-2.928-1.208-6.146-1.195-9.249-1.419 1.585-4.404 3.179-8.808 4.821-13.187.38-.245.908-.058 1.346-.118 24.374.015 48.75 0 73.127.009-1.684 4.425-3.36 8.85-5.026 13.281-5.871.272-11.922.42-17.428 2.714-2.523 1.056-4.911 2.671-6.402 5.007-1.035 1.712-1.678 3.622-2.373 5.488-10.184 27.775-20.461 55.514-30.531 83.332 5.578 12.608 11.392 25.107 17.081 37.663 20.661-48.789 41.316-97.585 62.002-146.365 1.394-2.934 3.664-5.611 3.842-8.986.172-2.641-1.787-4.92-4.057-6.003-4.893-2.258-10.392-2.37-15.68-2.56-.006-4.667-.006-9.333 0-13.999z"/><path d="m103.441 268.047c1.228-.033 2.463-.033 3.694-.027 2.578 6.308 5.116 12.632 7.649 18.958 2.526-6.305 5.125-12.58 7.594-18.907 1.265-.106 2.533-.033 3.8-.051-3.77 9.179-7.555 18.352-11.358 27.515-3.869-9.13-7.6-18.321-11.379-27.488zm114.953-1.374c6.522 6.756 12.994 13.556 19.453 20.369-.009-6.333.027-12.669.021-19.001 1.117.003 2.234-.009 3.354-.024.003 9.04.003 18.083 0 27.123-6.529-6.722-12.961-13.535-19.457-20.29.009 6.372-.015 12.747-.018 19.122-1.12.009-2.237.006-3.353.006-.003-9.104-.006-18.204 0-27.305zm-90.679 1.344c1.117.015 2.233.027 3.353.024.039 5.028-.006 10.06.036 15.089.079 2.387.263 5.095 2.086 6.864 2.104 1.802 5.454 1.913 7.7.311 1.307-.93 2.025-2.476 2.309-4.015.447-2.65.287-5.346.317-8.02.018-3.408.021-6.815.015-10.223 1.075-.012 2.152-.009 3.23-.006.048 4.727.009 9.45.021 14.177.075 2.931-.018 6.112-1.802 8.588-3.124 4.506-10.314 4.992-14.268 1.331-1.977-1.829-2.97-4.528-2.985-7.19-.03-5.645-.006-11.286-.012-16.93zm-81.177.027c1.135-.009 2.27-.006 3.408-.003.009 5.107-.016 10.217.012 15.324.051 2.246.329 4.715 1.916 6.444 2.527 2.479 7.489 2.125 9.252-1.086.89-1.509 1.15-3.296 1.126-5.023-.022-5.219-.022-10.437-.019-15.659 1.135-.006 2.27-.003 3.405 0 0 5.327.012 10.655-.003 15.982.006 2.418-.413 4.975-1.959 6.918-3.323 4.603-11.026 4.866-14.666.517-1.73-1.811-2.442-4.365-2.466-6.822-.015-5.53-.003-11.063-.006-16.592zm33.869.957c3.683-2.765 9.698-1.621 11.823 2.556-.887.501-1.774 1.005-2.662 1.506-1.597-2.496-5.487-3.106-7.633-.987-.909.664-.809 1.881-.713 2.88.26 1.304 1.648 1.856 2.672 2.469 2.638 1.388 5.807 2.188 7.66 4.706 2.068 2.81 1.727 6.993-.528 9.595-2.357 2.853-6.668 3.547-9.964 2.053-2.529-1.25-4.093-3.891-4.6-6.599 1.132-.268 2.27-.516 3.405-.769.115 2.469 2.031 4.965 4.639 5.01 3.52.384 6.318-4.192 4.268-7.111-2.188-2.979-6.408-3.021-8.925-5.596-2.964-2.424-2.665-7.649.558-9.713zm-51.898-1.398c7.187-1.105 14.79 4.522 15.43 11.85.604 4.193-1.023 8.564-4.093 11.452-5.047 4.938-14.123 4.848-19.022-.265-2.647-2.566-4.156-6.264-3.996-9.955.072-6.423 5.381-12.161 11.681-13.082zm172.052-.018c4.709-.589 9.574 1.585 12.466 5.309 4.168 5.216 3.501 13.538-1.446 18.023-2.825 2.792-6.978 3.942-10.878 3.529-3.855-.254-7.462-2.415-9.686-5.542-2.397-3.335-3.019-7.794-1.884-11.714 1.482-5.08 6.209-8.941 11.428-9.605zm-130.73.441c1.117-.012 2.236-.009 3.356-.003 0 8.65.003 17.301-.003 25.955-1.117 0-2.236.003-3.356-.006.006-8.648.006-17.299.003-25.946zm-64.328-.003c1.071-.006 2.143-.006 3.214 0 .003 7.663-.003 15.33.003 22.994 2.662.006 5.322 0 7.984.003.006.984.006 1.968.003 2.955-3.737.003-7.471.006-11.204 0 .003-8.651.003-17.302 0-25.952zm145.472.018c1.165.003 2.33-.009 3.498-.021 0 8.65-.003 17.301 0 25.955-1.174.003-2.345.003-3.517 0-.012-8.645.028-17.29.019-25.934zm36.003-.016c.327.001.654.001.981.001-.003 1.035-.003 2.07 0 3.109-2.007.009-4.011 0-6.016.003-.009 7.612-.003 15.224-.003 22.837-1.168.003-2.333.003-3.501 0-.006-7.613.021-15.225-.012-22.837-1.797.002-3.595.002-5.392.001h-1.54c-1.798-.001-3.595-.001-5.392.002-.006 7.612 0 15.221-.003 22.834-1.072.003-2.143.003-3.212 0-.003-7.613.003-15.222-.003-22.834-2.107-.006-4.21.003-6.317-.006-.003-1.033-.003-2.065 0-3.094 9.81.008 19.619-.015 29.429-.016zm13.006 2.944c-5.191.884-8.904 6.414-7.992 11.557.576 4.947 5.27 8.974 10.235 8.88 3.387.058 6.616-1.862 8.443-4.669 2.773-4.021 2.043-9.961-1.531-13.269-2.339-2.37-5.952-3.169-9.155-2.499zm-171.472-.046c-4.184.682-7.588 4.356-8.174 8.518-.797 4.73 2.122 9.819 6.689 11.365 3.996 1.509 8.859.087 11.424-3.324 3.318-4.162 2.756-10.878-1.325-14.334-2.294-2.086-5.611-2.774-8.614-2.225z"/></g></svg>

<?xml version="1.0" encoding="UTF-8" standalone="no"?>
<!DOCTYPE svg PUBLIC "-//W3C//DTD SVG 1.1//EN" "http://www.w3.org/Graphics/SVG/1.1/DTD/svg11.dtd">
<svg width="100%" height="100%" viewBox="0 0 560 400" version="1.1" xmlns="http://www.w3.org/2000/svg" xmlns:xlink="http://www.w3.org/1999/xlink" xml:space="preserve" xmlns:serif="http://www.serif.com/" style="fill-rule:evenodd;clip-rule:evenodd;stroke-linejoin:round;stroke-miterlimit:1.41421;">
    <g transform="matrix(0.926032,0,0,0.926032,165.791,61.3247)">
        <path id="path5" d="M180.824,3.97C201.518,3.97 222.215,3.967 242.909,3.973C242.921,8.633 242.885,13.296 242.93,17.96C237.672,18.189 232.296,18.778 227.455,20.978C222.544,23.185 218.427,27.199 216.308,32.171C191.144,91.325 165.997,150.486 140.86,209.653C140.425,210.625 140.075,211.63 139.568,212.569C130.567,212.463 121.563,212.553 112.562,212.52C108.59,204.627 104.681,196.701 100.676,188.826C96.085,201.129 91.467,213.42 86.876,225.72C116.568,225.723 146.26,225.72 175.952,225.723C181.388,225.795 186.987,225.569 192.073,223.444C200.525,220.048 207.253,213.486 212.728,206.372C219.338,197.751 224.355,188.047 228.825,178.186C233.839,178.144 238.849,178.201 243.86,178.192C234.358,198.488 224.808,218.765 215.221,239.022C146.8,239.025 78.382,239.022 9.961,239.022C11.627,234.672 13.212,230.287 14.998,225.982C15.107,225.539 15.659,225.65 15.995,225.608C24.537,225.545 33.136,225.213 41.518,223.435C45.88,222.412 50.392,221.047 53.749,217.932C55.524,216.239 56.076,213.767 56.665,211.485C64.745,189.861 72.837,168.24 80.923,146.619C63.833,110.205 46.686,73.812 29.586,37.401C28.21,34.217 26.393,31.063 23.535,28.989C17.618,24.558 9.931,23.997 2.807,23.713C2.801,18.494 2.807,13.278 2.804,8.06C26.828,8.05 50.848,8.053 74.872,8.056C74.875,13.275 74.878,18.494 74.869,23.713C71.738,23.912 68.415,23.861 65.581,25.409C64.174,26.073 63.347,27.746 63.709,29.267C64.153,31.757 66.121,33.535 67.117,35.784C77.262,57.634 87.407,79.487 97.582,101.328C102.68,87.072 107.778,72.819 112.897,58.573C113.649,56.592 113.915,54.304 113.057,52.312C112.384,50.74 110.857,49.768 109.351,49.113C106.423,47.905 103.205,47.918 100.102,47.694C101.687,43.29 103.281,38.886 104.923,34.507C105.303,34.262 105.831,34.449 106.269,34.389C130.643,34.404 155.019,34.389 179.396,34.398C177.712,38.823 176.036,43.248 174.37,47.679C168.499,47.951 162.448,48.099 156.942,50.393C154.419,51.449 152.031,53.064 150.54,55.4C149.505,57.112 148.862,59.022 148.167,60.888C137.983,88.663 127.706,116.402 117.636,144.22C123.214,156.828 129.028,169.327 134.717,181.883C155.378,133.094 176.033,84.298 196.719,35.518C198.113,32.584 200.383,29.907 200.561,26.532C200.733,23.891 198.774,21.612 196.504,20.529C191.611,18.271 186.112,18.159 180.824,17.969C180.818,13.302 180.818,8.636 180.824,3.97Z" style="fill-rule:nonzero;"/>
        <path id="path7" d="M103.441,268.047C104.669,268.014 105.904,268.014 107.135,268.02C109.713,274.328 112.251,280.652 114.784,286.978C117.31,280.673 119.909,274.398 122.378,268.071C123.643,267.965 124.911,268.038 126.178,268.02C122.408,277.199 118.623,286.372 114.82,295.535C110.951,286.405 107.22,277.214 103.441,268.047ZM218.394,266.673C224.916,273.429 231.388,280.229 237.847,287.042C237.838,280.709 237.874,274.373 237.868,268.041C238.985,268.044 240.102,268.032 241.222,268.017C241.225,277.057 241.225,286.1 241.222,295.14C234.693,288.418 228.261,281.605 221.765,274.85C221.774,281.222 221.75,287.597 221.747,293.972C220.627,293.981 219.51,293.978 218.394,293.978C218.391,284.874 218.388,275.774 218.394,266.673ZM127.715,268.017C128.832,268.032 129.948,268.044 131.068,268.041C131.107,273.069 131.062,278.101 131.104,283.13C131.183,285.517 131.367,288.225 133.19,289.994C135.294,291.796 138.644,291.907 140.89,290.305C142.197,289.375 142.915,287.829 143.199,286.29C143.646,283.64 143.486,280.944 143.516,278.27C143.534,274.862 143.537,271.455 143.531,268.047C144.606,268.035 145.683,268.038 146.761,268.041C146.809,272.768 146.77,277.491 146.782,282.218C146.857,285.149 146.764,288.33 144.98,290.806C141.856,295.312 134.666,295.798 130.712,292.137C128.735,290.308 127.742,287.609 127.727,284.947C127.697,279.302 127.721,273.661 127.715,268.017ZM46.538,268.044C47.673,268.035 48.808,268.038 49.946,268.041C49.955,273.148 49.93,278.258 49.958,283.365C50.009,285.611 50.287,288.08 51.874,289.809C54.401,292.288 59.363,291.934 61.126,288.723C62.016,287.214 62.276,285.427 62.252,283.7C62.23,278.481 62.23,273.263 62.233,268.041C63.368,268.035 64.503,268.038 65.638,268.041C65.638,273.368 65.65,278.696 65.635,284.023C65.641,286.441 65.222,288.998 63.676,290.941C60.353,295.544 52.65,295.807 49.01,291.458C47.28,289.647 46.568,287.093 46.544,284.636C46.529,279.106 46.541,273.573 46.538,268.044ZM80.407,269.001C84.09,266.236 90.105,267.38 92.23,271.557C91.343,272.058 90.456,272.562 89.568,273.063C87.971,270.567 84.081,269.957 81.935,272.076C81.026,272.74 81.126,273.957 81.222,274.956C81.482,276.26 82.87,276.812 83.894,277.425C86.532,278.813 89.701,279.613 91.554,282.131C93.622,284.941 93.281,289.124 91.026,291.726C88.669,294.579 84.358,295.273 81.062,293.779C78.533,292.529 76.969,289.888 76.462,287.18C77.594,286.912 78.732,286.664 79.867,286.411C79.982,288.88 81.898,291.376 84.506,291.421C88.026,291.805 90.824,287.229 88.774,284.31C86.586,281.331 82.366,281.289 79.849,278.714C76.885,276.29 77.184,271.065 80.407,269.001ZM28.509,267.603C35.696,266.498 43.299,272.125 43.939,279.453C44.543,283.646 42.916,288.017 39.846,290.905C34.799,295.843 25.723,295.753 20.824,290.64C18.177,288.074 16.668,284.376 16.828,280.685C16.9,274.262 22.209,268.524 28.509,267.603ZM200.561,267.585C205.27,266.996 210.135,269.17 213.027,272.894C217.195,278.11 216.528,286.432 211.581,290.917C208.756,293.709 204.603,294.859 200.703,294.446C196.848,294.192 193.241,292.031 191.017,288.904C188.62,285.569 187.998,281.11 189.133,277.19C190.615,272.11 195.342,268.249 200.561,267.585ZM69.831,268.026C70.948,268.014 72.067,268.017 73.187,268.023C73.187,276.673 73.19,285.324 73.184,293.978C72.067,293.978 70.948,293.981 69.828,293.972C69.834,285.324 69.834,276.673 69.831,268.026ZM5.503,268.023C6.574,268.017 7.646,268.017 8.717,268.023C8.72,275.686 8.714,283.353 8.72,291.017C11.382,291.023 14.042,291.017 16.704,291.02C16.71,292.004 16.71,292.988 16.707,293.975C12.97,293.978 9.236,293.981 5.503,293.975C5.506,285.324 5.506,276.673 5.503,268.023ZM150.975,268.041C152.14,268.044 153.305,268.032 154.473,268.02C154.473,276.67 154.47,285.321 154.473,293.975C153.299,293.978 152.128,293.978 150.956,293.975C150.944,285.33 150.984,276.685 150.975,268.041ZM186.978,268.025C187.305,268.026 187.632,268.026 187.959,268.026C187.956,269.061 187.956,270.096 187.959,271.135C185.952,271.144 183.948,271.135 181.943,271.138C181.934,278.75 181.94,286.362 181.94,293.975C180.772,293.978 179.607,293.978 178.439,293.975C178.433,286.362 178.46,278.75 178.427,271.138C176.63,271.14 174.832,271.14 173.035,271.139L171.495,271.139C169.697,271.138 167.9,271.138 166.103,271.141C166.097,278.753 166.103,286.362 166.1,293.975C165.028,293.978 163.957,293.978 162.888,293.975C162.885,286.362 162.891,278.753 162.885,271.141C160.778,271.135 158.675,271.144 156.568,271.135C156.565,270.102 156.565,269.07 156.568,268.041C166.378,268.049 176.187,268.026 185.997,268.025L186.978,268.025ZM199.984,270.969C194.793,271.853 191.08,277.383 191.992,282.526C192.568,287.473 197.262,291.5 202.227,291.406C205.614,291.464 208.843,289.544 210.67,286.737C213.443,282.716 212.713,276.776 209.139,273.468C206.8,271.098 203.187,270.299 199.984,270.969ZM28.512,270.923C24.328,271.605 20.924,275.279 20.338,279.441C19.541,284.171 22.46,289.26 27.027,290.806C31.023,292.315 35.886,290.893 38.451,287.482C41.769,283.32 41.207,276.604 37.126,273.148C34.832,271.062 31.515,270.374 28.512,270.923Z" style="fill-rule:nonzero;"/>
    </g>
</svg>
